svgs/regular/bring-front.svg

<svg xmlns="http://www.w3.org/2000/svg" viewBox="0 0 640 512"><!--! Font Awesome Pro 6.6.0 by @fontawesome - https://fontawesome.com License - https://fontawesome.com/license (Commercial License) Copyright 2024 Fonticons, Inc. --><path d="M64 48l128 0c8.8 0 16 7.2 16 16l48 0c0-35.3-28.7-64-64-64L64 0C28.7 0 0 28.7 0 64L0 192c0 35.3 28.7 64 64 64l64 0 0-48-64 0c-8.8 0-16-7.2-16-16L48 64c0-8.8 7.2-16 16-16zM448 512l128 0c35.3 0 64-28.7 64-64l0-128c0-35.3-28.7-64-64-64l-64 0 0 48 64 0c8.8 0 16 7.2 16 16l0 128c0 8.8-7.2 16-16 16l-128 0c-8.8 0-16-7.2-16-16l-48 0c0 35.3 28.7 64 64 64zM224 96c-35.3 0-64 28.7-64 64l0 192c0 35.3 28.7 64 64 64l192 0c35.3 0 64-28.7 64-64l0-192c0-35.3-28.7-64-64-64L224 96z"/></svg>

<svg xmlns="http://www.w3.org/2000/svg" viewBox="0 0 640 512"><!--! Font Awesome Pro 6.4.0 by @fontawesome - https://fontawesome.com License - https://fontawesome.com/license (Commercial License) Copyright 2023 Fonticons, Inc. --><path d="M64 48H192c8.8 0 16 7.2 16 16h48c0-35.3-28.7-64-64-64H64C28.7 0 0 28.7 0 64V192c0 35.3 28.7 64 64 64h64V208H64c-8.8 0-16-7.2-16-16V64c0-8.8 7.2-16 16-16zM448 512H576c35.3 0 64-28.7 64-64V320c0-35.3-28.7-64-64-64H512v48h64c8.8 0 16 7.2 16 16V448c0 8.8-7.2 16-16 16H448c-8.8 0-16-7.2-16-16H384c0 35.3 28.7 64 64 64zM224 96c-35.3 0-64 28.7-64 64V352c0 35.3 28.7 64 64 64H416c35.3 0 64-28.7 64-64V160c0-35.3-28.7-64-64-64H224z"/></svg>
